public/images/logo/golang.svg

<svg width="100" height="100" viewBox="0 0 100 100" fill="none" xmlns="http://www.w3.org/2000/svg">
<g clip-path="url(#clip0_0_225)">
<path d="M76.5625 0H23.4375C10.4933 0 0 10.4933 0 23.4375V76.5625C0 89.5067 10.4933 100 23.4375 100H76.5625C89.5067 100 100 89.5067 100 76.5625V23.4375C100 10.4933 89.5067 0 76.5625 0Z" fill="#00B4E0"/>
<path d="M15.8203 44.232C15.6641 44.232 15.625 44.1539 15.7031 44.0367L16.5234 42.982C16.6016 42.8648 16.7969 42.7867 16.9531 42.7867H30.8984C31.0547 42.7867 31.0938 42.9039 31.0156 43.0211L30.3516 44.0367C30.2734 44.1539 30.0781 44.2711 29.9609 44.2711L15.8203 44.232ZM9.92187 47.8258C9.76562 47.8258 9.72656 47.7477 9.80469 47.6305L10.625 46.5758C10.7031 46.4586 10.8984 46.3805 11.0547 46.3805H28.8672C29.0234 46.3805 29.1016 46.4977 29.0625 46.6148L28.75 47.5523C28.7109 47.7086 28.5547 47.7867 28.3984 47.7867L9.92187 47.8258ZM19.375 51.4195C19.2187 51.4195 19.1797 51.3023 19.2578 51.1852L19.8047 50.2086C19.8828 50.0914 20.0391 49.9742 20.1953 49.9742H28.0078C28.1641 49.9742 28.2422 50.0914 28.2422 50.2477L28.1641 51.1852C28.1641 51.3414 28.0078 51.4586 27.8906 51.4586L19.375 51.4195ZM59.9219 43.5289C57.4609 44.1539 55.7813 44.6227 53.3594 45.2477C52.7734 45.4039 52.7344 45.443 52.2266 44.857C51.6406 44.193 51.2109 43.7633 50.3906 43.3727C47.9297 42.1617 45.5469 42.5133 43.3203 43.9586C40.6641 45.6773 39.2969 48.2164 39.3359 51.3805C39.375 54.5055 41.5234 57.0836 44.6094 57.5133C47.2656 57.8648 49.4922 56.9273 51.25 54.9352C51.6016 54.5055 51.9141 54.0367 52.3047 53.4899H44.7656C43.9453 53.4899 43.75 52.982 44.0234 52.318C44.5312 51.107 45.4688 49.0758 46.0156 48.0602C46.1328 47.8258 46.4062 47.4352 46.9922 47.4352H61.2109C61.1328 48.4898 61.1328 49.5445 60.9766 50.5992C60.5469 53.4117 59.4922 55.9898 57.7734 58.2555C54.9609 61.9664 51.2891 64.2711 46.6406 64.8961C42.8125 65.4039 39.2578 64.6617 36.1328 62.318C33.2422 60.1305 31.6016 57.2398 31.1719 53.6461C30.6641 49.3883 31.9141 45.5602 34.4922 42.2008C37.2656 38.568 40.9375 36.2633 45.4297 35.443C49.1016 34.7789 52.6172 35.2086 55.7812 37.357C57.8516 38.7242 59.3359 40.5992 60.3125 42.8648C60.5469 43.2164 60.3906 43.4117 59.9219 43.5289Z" fill="white"/>
<path d="M72.8515 65.1305C69.2968 65.0523 66.0546 64.0367 63.3203 61.693C61.0156 59.7008 59.5703 57.1617 59.1015 54.1539C58.3984 49.7398 59.6093 45.8336 62.2656 42.357C65.1171 38.607 68.5546 36.6539 73.2031 35.8336C77.1874 35.1305 80.9374 35.5211 84.3359 37.8258C87.4218 39.9351 89.3359 42.7867 89.8437 46.5367C90.5078 51.8101 88.9843 56.107 85.3515 59.7789C82.7734 62.3961 79.6093 64.0367 75.9765 64.7789C74.9218 64.9742 73.8671 65.0133 72.8515 65.1305ZM82.1484 49.3492C82.1093 48.8414 82.1093 48.4508 82.0312 48.0601C81.3281 44.193 77.7734 42.0055 74.0624 42.8648C70.4296 43.6851 68.0859 45.9898 67.2265 49.6617C66.5234 52.7086 68.0078 55.7945 70.8203 57.0445C72.9687 57.982 75.1171 57.8648 77.1874 56.8101C80.2734 55.2086 81.9531 52.7086 82.1484 49.3492Z" fill="white"/>
</g>
<defs>
<clipPath id="clip0_0_225">
<rect width="100" height="100" fill="white"/>
</clipPath>
</defs>
</svg>

<svg xmlns="http://www.w3.org/2000/svg" width="100" height="100" fill="none"><g clip-path="url(#a)"><path fill="#00B4E0" d="M76.563 0H23.437C10.493 0 0 10.493 0 23.438v53.124C0 89.507 10.493 100 23.438 100h53.124C89.507 100 100 89.507 100 76.562V23.438C100 10.492 89.507 0 76.562 0Z"/><path fill="#fff" d="M15.82 44.232c-.156 0-.195-.078-.117-.195l.82-1.055c.079-.117.274-.195.43-.195h13.945c.157 0 .196.117.118.234l-.664 1.016c-.079.117-.274.234-.391.234l-14.14-.039Zm-5.898 3.594c-.156 0-.195-.078-.117-.196l.82-1.054c.078-.117.273-.196.43-.196h17.812c.156 0 .235.118.195.235l-.312.937c-.04.157-.195.235-.352.235l-18.476.039Zm9.453 3.593c-.156 0-.195-.117-.117-.234l.547-.976c.078-.118.234-.235.39-.235h7.813c.156 0 .234.117.234.274l-.078.937c0 .156-.156.274-.273.274l-8.516-.04Zm40.547-7.89c-2.461.625-4.14 1.094-6.563 1.719-.586.156-.625.195-1.132-.391-.586-.664-1.016-1.094-1.836-1.484-2.461-1.211-4.844-.86-7.07.586-2.657 1.718-4.024 4.257-3.985 7.421.039 3.125 2.187 5.704 5.273 6.133 2.657.352 4.883-.586 6.641-2.578.352-.43.664-.898 1.055-1.445h-7.54c-.82 0-1.015-.508-.742-1.172.508-1.211 1.446-3.242 1.993-4.258.117-.234.39-.625.976-.625h14.219c-.078 1.055-.078 2.11-.234 3.164-.43 2.813-1.485 5.39-3.204 7.657-2.812 3.71-6.484 6.015-11.132 6.64-3.828.508-7.383-.234-10.508-2.578-2.89-2.188-4.531-5.078-4.961-8.672-.508-4.258.742-8.086 3.32-11.445 2.774-3.633 6.446-5.938 10.938-6.758 3.672-.664 7.187-.234 10.351 1.914 2.07 1.367 3.555 3.242 4.532 5.508.234.351.078.547-.391.664Z"/><path fill="#fff" d="M72.852 65.13c-3.555-.078-6.797-1.093-9.532-3.437-2.304-1.992-3.75-4.531-4.218-7.54-.704-4.413.507-8.32 3.164-11.796 2.851-3.75 6.289-5.703 10.937-6.523 3.984-.704 7.734-.313 11.133 1.992 3.086 2.11 5 4.96 5.508 8.71.664 5.274-.86 9.571-4.492 13.243-2.579 2.617-5.743 4.258-9.376 5-1.054.195-2.109.234-3.124.352Zm9.296-15.78c-.039-.509-.039-.9-.117-1.29-.703-3.867-4.258-6.055-7.969-5.195-3.632.82-5.976 3.125-6.835 6.797-.704 3.047.78 6.133 3.593 7.383 2.149.937 4.297.82 6.367-.235 3.086-1.601 4.766-4.101 4.961-7.46Z"/></g><defs><clipPath id="a"><path fill="#fff" d="M0 0h100v100H0z"/></clipPath></defs></svg>
